packages/kaspersky-hexa-ui-icons/src/iconsSVGs/16/Plugin.svg

<svg width="16" height="16" viewBox="0 0 16 16" fill="none" xmlns="http://www.w3.org/2000/svg">
<path fill-rule="evenodd" clip-rule="evenodd" d="M7.33327 2.64998C6.95587 2.64998 6.64994 2.95591 6.64994 3.33331C6.64994 3.56264 6.64994 3.78324 6.65118 3.99617L6.65501 4.64998H4.6666C3.92102 4.64998 3.3166 5.25439 3.3166 5.99997V11.3333C3.3166 12.0789 3.92102 12.6833 4.6666 12.6833H5.34994C5.34994 12.6781 5.34994 12.6729 5.34994 12.6678V12.6666C5.34994 11.5713 6.2379 10.6833 7.33327 10.6833C8.42863 10.6833 9.3166 11.5713 9.3166 12.6666V12.6681C9.3166 12.6732 9.3166 12.6782 9.3166 12.6833H9.99993C10.7455 12.6833 11.3499 12.0789 11.3499 11.3333V9.33806L12.0079 9.34613C12.2152 9.34868 12.4345 9.34998 12.6666 9.34998C13.044 9.34998 13.3499 9.04404 13.3499 8.66664C13.3499 8.28925 13.044 7.98331 12.6666 7.98331C12.4347 7.98331 12.2158 7.9848 12.0091 7.98771L11.3499 7.997V5.99998C11.3499 5.25439 10.7455 4.64998 9.99994 4.64998H8.03663L8.02415 4.0127C8.01989 3.79537 8.0166 3.56818 8.0166 3.33331C8.0166 2.95591 7.71066 2.64998 7.33327 2.64998ZM5.34994 3.33331C5.34994 2.23794 6.2379 1.34998 7.33327 1.34998C8.42863 1.34998 9.3166 2.23794 9.3166 3.33331C9.3166 3.33887 9.3166 3.34442 9.31661 3.34998H9.99994C11.4635 3.34998 12.6499 4.53642 12.6499 5.99998V6.68331C12.6555 6.68331 12.661 6.68331 12.6666 6.68331C13.762 6.68331 14.6499 7.57128 14.6499 8.66664C14.6499 9.76201 13.762 10.65 12.6666 10.65C12.661 10.65 12.6555 10.65 12.6499 10.65V11.3333C12.6499 12.7969 11.4635 13.9833 9.99993 13.9833H8.00876L8.01467 13.3274C8.0166 13.1143 8.0166 12.8944 8.0166 12.6666C8.0166 12.2892 7.71066 11.9833 7.33327 11.9833C6.95587 11.9833 6.64994 12.2892 6.64994 12.6666C6.64994 12.8993 6.64994 13.1196 6.65124 13.3293L6.65529 13.9833H4.6666C3.20304 13.9833 2.0166 12.7969 2.0166 11.3333V5.99997C2.0166 4.53642 3.20305 3.34998 4.6666 3.34998H5.34994C5.34994 3.34476 5.34994 3.33955 5.34994 3.33433V3.33331Z" fill="black"/>
</svg>

<svg xmlns="http://www.w3.org/2000/svg" width="16" height="16" fill="none" viewBox="0 0 16 16"><path fill="#000" fill-rule="evenodd" d="M7.3334 2.65a.6833.6833 0 0 0-.6833.6833c0 .2294 0 .45.0012.6629l.0038.6538H4.6667c-.7456 0-1.35.6044-1.35 1.35v5.3333c0 .7456.6044 1.35 1.35 1.35h.6834v-.0166c0-1.0954.888-1.9834 1.9833-1.9834s1.9833.888 1.9833 1.9834v.0166h.6834c.7455 0 1.35-.6044 1.35-1.35V9.3381l.6579.008q.3108.004.6587.004a.6834.6834 0 1 0 0-1.3668q-.3476 0-.6575.0044l-.6591.0093V6c0-.7456-.6045-1.35-1.35-1.35H8.0368l-.0125-.6373a35 35 0 0 1-.0076-.6794.6833.6833 0 0 0-.6833-.6833M5.35 3.3333c0-1.0953.888-1.9833 1.9833-1.9833s1.9833.888 1.9833 1.9833V3.35H10c1.4635 0 2.65 1.1865 2.65 2.65v.6833h.0166c1.0954 0 1.9834.888 1.9834 1.9834 0 1.0953-.888 1.9833-1.9834 1.9833H12.65v.6833c0 1.4636-1.1865 2.65-2.65 2.65H8.0089l.0059-.6558c.002-.2132.002-.4331.002-.6608a.6834.6834 0 1 0-1.3667 0c0 .2326 0 .4529.0013.6626l.004.654H4.6667c-1.4635 0-2.65-1.1864-2.65-2.65V6c0-1.4635 1.1865-2.65 2.65-2.65h.6834v-.0166"/></svg>
